assets/img/braze_icons/home-03.svg

<svg fill="none" height="24" viewBox="0 0 24 24" width="24" xmlns="http://www.w3.org/2000/svg"><path clip-rule="evenodd" d="m11.4909 1.31589c.3337-.08785.6845-.08785 1.0182 0 .3873.10193.7158.35064.9779.54901l.073.0551.6068.45507c.0764.05675.1538.11497.2325.1742l.1207.09073 8.08 6.06c.4418.33137.5314.95817.2 1.4-.3314.4418-.9582.5314-1.4.2l-.4-.3v7.8386c0 .5271 0 .9819-.0306 1.3564-.0323.3954-.1036.7886-.2964 1.167-.2876.5645-.7465 1.0234-1.311 1.311-.3784.1928-.7716.2641-1.167.2964-.3745.0306-.8293.0306-1.3564.0306h-9.67716c-.52714 0-.9819 0-1.35647-.0306-.39534-.0323-.78856-.1036-1.16694-.2964-.56449-.2876-1.02343-.7465-1.31105-1.311-.19279-.3784-.26411-.7716-.29641-1.167-.0306-.3745-.03059-.8293-.03057-1.3565v-7.8385l-.4.3c-.44183.3314-1.06863.2418-1.4-.2-.331373-.44183-.24183-1.06863.2-1.4l8.08-6.06.12068-.0907c.0787-.05922.15607-.11743.23248-.17417l.60684-.45513.073-.0551c.2621-.19837.5906-.44708.9779-.54901zm-2.4909 12.28411v6.4h6v-6.4c0-.5601 0-.8401-.109-1.054-.0959-.1882-.2488-.3411-.437-.437-.2139-.109-.4939-.109-1.054-.109h-2.8c-.5601 0-.84008 0-1.05399.109-.18816.0959-.34114.2488-.43702.437-.10899.2139-.10899.4939-.10899 1.054z" fill="#801ed7" fill-rule="evenodd"/></svg>

<svg width="24" height="24" viewBox="0 0 24 24" fill="none" xmlns="http://www.w3.org/2000/svg">
<path fill-rule="evenodd" clip-rule="evenodd" d="M11.4909 1.31589C11.8246 1.22804 12.1754 1.22804 12.5091 1.31589C12.8964 1.41782 13.2249 1.66653 13.487 1.8649L13.56 1.92L14.1668 2.37507C14.2432 2.43182 14.3206 2.49004 14.3993 2.54927L14.52 2.64L22.6 8.7C23.0418 9.03137 23.1314 9.65817 22.8 10.1C22.4686 10.5418 21.8418 10.6314 21.4 10.3L21 10V17.8386C21 18.3657 21 18.8205 20.9694 19.195C20.9371 19.5904 20.8658 19.9836 20.673 20.362C20.3854 20.9265 19.9265 21.3854 19.362 21.673C18.9836 21.8658 18.5904 21.9371 18.195 21.9694C17.8205 22 17.3657 22 16.8386 22H7.16144C6.6343 22 6.17954 22 5.80497 21.9694C5.40963 21.9371 5.01641 21.8658 4.63803 21.673C4.07354 21.3854 3.6146 20.9265 3.32698 20.362C3.13419 19.9836 3.06287 19.5904 3.03057 19.195C2.99997 18.8205 2.99998 18.3657 3 17.8385L3 10L2.6 10.3C2.15817 10.6314 1.53137 10.5418 1.2 10.1C0.868627 9.65817 0.95817 9.03137 1.4 8.7L9.48 2.64L9.60068 2.5493C9.67938 2.49008 9.75675 2.43187 9.83316 2.37513L10.44 1.92L10.513 1.8649C10.7751 1.66653 11.1036 1.41782 11.4909 1.31589ZM9 13.6V20H15V13.6C15 13.0399 15 12.7599 14.891 12.546C14.7951 12.3578 14.6422 12.2049 14.454 12.109C14.2401 12 13.9601 12 13.4 12H10.6C10.0399 12 9.75992 12 9.54601 12.109C9.35785 12.2049 9.20487 12.3578 9.10899 12.546C9 12.7599 9 13.0399 9 13.6Z" fill="#801ED7"/>
</svg>
